X: 27561
T: Money In Both Pockets
R: jig
M: 6/8
K: Cmajor
|:GAB|c2 E EDE|GAG GFE|c2 E EDE|G2 f edB|
c2 E EDE|G2 G GFE|DED DEG|A3:|
|:GG/A/B|ceg gec|Bdg dBG|ceg gec|f3 ee/f/g|
agf gfe|d^ce dBG|cBA GEG|A3:|

